icons/lines/headphone.svg

<svg xmlns="http://www.w3.org/2000/svg" width="24" height="24" viewBox="0 0 24 24" fill="none" stroke="currentColor" stroke-width="2" stroke-linecap="round" stroke-linejoin="round" >
  <path d="M5.46005 18.49V15.57C5.46005 14.6 6.22005 13.73 7.30005 13.73C8.27005 13.73 9.14005 14.49 9.14005 15.57V18.38C9.14005 20.33 7.52005 21.9501 5.57005 21.9501C3.62005 21.9501 2.00005 20.32 2.00005 18.38V12.22C1.89005 6.60005 6.33005 2.05005 11.95 2.05005C17.57 2.05005 22 6.60005 22 12.11V18.2701C22 20.2201 20.38 21.84 18.43 21.84C16.48 21.84 14.86 20.2201 14.86 18.2701V15.46C14.86 14.49 15.62 13.62 16.7 13.62C17.67 13.62 18.54 14.38 18.54 15.46V18.49"/>
  </svg>

<svg xmlns="http://www.w3.org/2000/svg" width="24" height="24" viewBox="0 0 24 24" fill="none" stroke="currentColor" stroke-width="2" stroke-linecap="round" stroke-linejoin="round">
  <path d="M5.46 18.49v-2.92a1 1 0 1 1 3.68 0v2.81c0 1.95-1.62 3.57-3.57 3.57S2 20.32 2 18.38v-6.16a10 10 0 0 1 9.95-10.17C17.57 2.05 22 6.6 22 12.11v6.16c0 1.95-1.62 3.57-3.57 3.57s-3.57-1.62-3.57-3.57v-2.81a1 1 0 1 1 3.68 0v3.03" />
</svg>
